Sources/FrostedUI/Resources/Icons.xcassets/arrowUpRightFromBracket12.imageset/arrow-up-right-from-bracket-12.svg

<svg width="12" height="12" viewBox="0 0 12 12" fill="none" xmlns="http://www.w3.org/2000/svg" data-fui-icon="true">
  <path
    d="M11.25 6.75C11.6642 6.75 12 7.08579 12 7.5V8.75C12 10.5449 10.5449 12 8.75 12H3.25C1.45507 12 0 10.5449 0 8.75V7.5C0 7.08579 0.335786 6.75 0.75 6.75C1.16421 6.75 1.5 7.08579 1.5 7.5V8.75C1.5 9.7165 2.2835 10.5 3.25 10.5H8.75C9.7165 10.5 10.5 9.7165 10.5 8.75V7.5C10.5 7.08579 10.8358 6.75 11.25 6.75ZM7.21973 0.219727C7.51262 -0.0731667 7.98738 -0.0731667 8.28027 0.219727L10.2803 2.21973C10.5732 2.51262 10.5732 2.98738 10.2803 3.28027L8.28027 5.28027C7.98738 5.57317 7.51262 5.57317 7.21973 5.28027C6.92683 4.98738 6.92683 4.51262 7.21973 4.21973L7.93945 3.5H6.75C6.05964 3.5 5.5 4.05964 5.5 4.75V7.25C5.5 7.66421 5.16421 8 4.75 8C4.33579 8 4 7.66421 4 7.25V4.75C4 3.23122 5.23122 2 6.75 2H7.93945L7.21973 1.28027C6.92683 0.98738 6.92683 0.51262 7.21973 0.219727Z"
    fill="currentColor"
  />
</svg>

<svg xmlns="http://www.w3.org/2000/svg" width="12" height="12" fill="none" data-fui-icon="true" viewBox="0 0 12 12"><path fill="currentColor" d="M11.25 6.75a.75.75 0 0 1 .75.75v1.25A3.25 3.25 0 0 1 8.75 12h-5.5A3.25 3.25 0 0 1 0 8.75V7.5a.75.75 0 0 1 1.5 0v1.25c0 .966.784 1.75 1.75 1.75h5.5a1.75 1.75 0 0 0 1.75-1.75V7.5a.75.75 0 0 1 .75-.75M7.22.22a.75.75 0 0 1 1.06 0l2 2a.75.75 0 0 1 0 1.06l-2 2a.75.75 0 1 1-1.06-1.06l.72-.72H6.75c-.69 0-1.25.56-1.25 1.25v2.5a.75.75 0 0 1-1.5 0v-2.5A2.75 2.75 0 0 1 6.75 2h1.19l-.72-.72a.75.75 0 0 1 0-1.06"/></svg>
